assets/os_logos/fedora.svg

<svg height="267" width="267" xmlns="http://www.w3.org/2000/svg" xmlns:xlink="https://www.w3.org/1999/xlink"><path d="m266.62575 133.50613c0-73.52485-59.60353-133.1303-133.12783-133.1303-73.49124 0-133.07153 59.5554-133.12367 133.03642v103.02105c.03955 16.68433 13.5712 30.19087 30.26602 30.19087h102.91165c73.49975-.02885 133.07383-59.61275 133.07383-133.11804" fill="#294172"/><path id="a" d="m77.126289 142.09756h47.844751v47.84478c0 26.41029-21.43445 47.84473-47.844751 47.84473-26.41031 0-47.844759-21.43444-47.844759-47.84473 0-26.41031 21.434449-47.84478 47.844759-47.84478z" fill="none" stroke="#3c6eb4" stroke-width="29.21"/><use transform="matrix(-1 0 0 -1 249.71151 284.2882)" xlink:href="#a"/><path id="b" d="m139.6074 127.52923v62.34618c0 34.50402-27.97537 62.48-62.48061 62.48-5.23494 0-8.95649-.59101-13.80235-1.8577-7.06595-1.84912-12.84046-7.64253-12.84286-14.38111 0-8.14513 5.91236-14.0699 14.75029-14.0699 4.20637 0 5.73267.80765 11.89492.80765 18.19161 0 32.94764-14.73519 32.97955-32.92679v-28.65657c0-2.56775-2.08663-4.64825-4.65867-4.64825l-21.66521-.00428c-8.07212 0-14.59401-6.43843-14.59401-14.53266-.00431-8.14456 6.5888-14.55657 14.74808-14.55657" fill="#fff"/><use transform="matrix(-1 0 0 -1 249.71152 284.28821)" xlink:href="#b"/><path d="m243.65456 243.58425s.00004-5.53139.00004-5.53139l-2.52853 5.79776s-2.46141-5.79776-2.46141-5.79776l.00047 5.53139h-1.4183v-8.73492h1.48704s2.43397 5.58051 2.43397 5.58051l2.39711-5.58051h1.50544v8.73492zm-10.33302-7.27184v7.27184h-1.48213v-7.27184h-2.48488v-1.46308h6.44946v1.46308" fill="#3c6eb4"/></svg>

<?xml version="1.0" encoding="UTF-8" standalone="no"?>
<svg xmlns:svg="http://www.w3.org/2000/svg" xmlns="http://www.w3.org/2000/svg" xmlns:xlink="http://www.w3.org/1999/xlink" version="1.0" width="267" height="267" id="svg2">
  <defs id="defs5"/>
  <path d="M 266.62575,133.50613 C 266.62575,59.98128 207.02222,0.37583 133.49792,0.37583 C 60.00668,0.37583 0.42639,59.93123 0.37425,133.41225 L 0.37425,236.4333 C 0.4138,253.11763 13.94545,266.62417 30.64027,266.62417 L 133.55192,266.62417 C 207.05167,266.59532 266.62575,207.01142 266.62575,133.50613" id="voice" style="fill:#294172"/>
  <path d="M 77.126289,142.09756 C 77.126289,142.09756 124.97104,142.09756 124.97104,142.09756 C 124.97104,142.09756 124.97104,189.94234 124.97104,189.94234 C 124.97104,216.35263 103.53659,237.78707 77.126289,237.78707 C 50.715979,237.78707 29.28153,216.35263 29.28153,189.94234 C 29.28153,163.53203 50.715979,142.09756 77.126289,142.09756 z" id="in" style="fill:none;stroke:#3c6eb4;stroke-width:29.21"/>
  <use transform="matrix(-1,0,0,-1,249.71151,284.2882)" id="finity" xlink:href="#in"/>
  <path d="M 139.6074,127.52923 L 139.6074,189.87541 C 139.6074,224.37943 111.63203,252.35541 77.12679,252.35541 C 71.89185,252.35541 68.1703,251.7644 63.32444,250.49771 C 56.25849,248.64859 50.48398,242.85518 50.48158,236.1166 C 50.48158,227.97147 56.39394,222.0467 65.23187,222.0467 C 69.43824,222.0467 70.96454,222.85435 77.12679,222.85435 C 95.3184,222.85435 110.07443,208.11916 110.10634,189.92756 L 110.10634,161.27099 C 110.10634,158.70324 108.01971,156.62274 105.44767,156.62274 L 83.78246,156.61846 C 75.71034,156.61846 69.18845,150.18003 69.18845,142.0858 C 69.18414,133.94124 75.77725,127.52923 83.93653,127.52923" id="free" style="fill:#ffffff"/>
  <use transform="matrix(-1,0,0,-1,249.71152,284.28821)" id="dom" xlink:href="#free"/>
  <path d="M 243.65456,243.58425 C 243.65456,243.58425 243.6546,238.05286 243.6546,238.05286 L 241.12607,243.85062 C 241.12607,243.85062 238.66466,238.05286 238.66466,238.05286 L 238.66513,243.58425 L 237.24683,243.58425 L 237.24683,234.84933 L 238.73387,234.84933 C 238.73387,234.84933 241.16784,240.42984 241.16784,240.42984 L 243.56495,234.84933 L 245.07039,234.84933 L 245.07039,243.58425 L 243.65456,243.58425 z M 233.32154,236.31241 L 233.32154,243.58425 L 231.83941,243.58425 L 231.83941,236.31241 L 229.35453,236.31241 L 229.35453,234.84933 L 235.80399,234.84933 L 235.80399,236.31241" id="TM" style="fill:#3c6eb4"/>
</svg>
